!!!OTL: Altes Minnelied.
!!!OTL-incipit: ICH FAHR DAHIN
!!!ARE: Europa, Mitteleuropa, Deutschland
!!!SCT: Z1144
!!!TXL: @@DE
!!!YEM: Copyright 1995, estate of Helmut Schaffrath.
**kern	**text
*ICvox	*
*M6/4	*
*k[b-]	*
*F:	*
!LO:TX:a:t=Altdeutſch.	!
{4c	Jch
=1	=1
2f	fahr'
4f	da-
2c	-hin,
4b-X/	wenn
=2	=2
2a	es
4g	muß
2f}	ſeyn,
{4f	ich
=3	=3
2e	ſcheid'
4f	mich
2g	von
4c	der
=4	=4
2e	Lieb-
4d	-ſten
2c}	mein,
{4c	ʒu-
=5	=5
2f	-letʒt
4g	laß
2a	ich
4g	ihr's
=6	=6
2b-X/	Her-
4a	-ʒe
2g}	mein,
{4f	die-
=7	=7
2a	-weil
4b-X/	ich
2cc	leb',
4dd	ſo
=8	=8
4cc	ſoll
4a	.
4f	es
2.g}	ſeyn,
=9	=9
{2.f	ich
2e	fahr'
4f	da-
=10	=10
2.b-X/	-hin,
2.g}	ich
=11	=11
{2.a	fahr'
2.g	da-
=12	=12
1.f}	-hin!
==	==
!!!AGN: Liebes - Lied
!!!ONB: ESAC (Essen Associative Code) Database: ZUCCAL
!!!AMT: compound duple
!!!AIN: vox
!!!EED: Helmut Schaffrath
!!!EEV: 1.0
!!!GTL: V. Lieder der Minne.
!!!URL-scan: https://www.digitale-sammlungen.de/de/view/bsb11160573?page=321
!!!ENC: Anna Maria Matuszewska
!!!EEV: 2025/02/05
*-	*-
